img/testim-button-prev.svg

<svg width="34" height="34" viewBox="0 0 34 34" fill="none" xmlns="http://www.w3.org/2000/svg">
<path fill-rule="evenodd" clip-rule="evenodd" d="M11.3797 7.53253C10.6637 6.82249 9.50293 6.82249 8.78697 7.53253L0.536969 15.7144C-0.178992 16.4244 -0.178992 17.5756 0.536969 18.2856L8.78697 26.4675C9.50293 27.1775 10.6637 27.1775 11.3797 26.4675C12.0957 25.7574 12.0957 24.6062 11.3797 23.8962L6.25939 18.8182H31.1667C32.1792 18.8182 33 18.0042 33 17C33 15.9958 32.1792 15.1818 31.1667 15.1818H6.25939L11.3797 10.1038C12.0957 9.39379 12.0957 8.24258 11.3797 7.53253Z" fill="#7D82B7"/>
</svg>

<svg width="34" height="34" fill="none" xmlns="http://www.w3.org/2000/svg"><path fill-rule="evenodd" clip-rule="evenodd" d="M11.38 7.533a1.844 1.844 0 00-2.593 0l-8.25 8.181a1.807 1.807 0 000 2.572l8.25 8.181c.716.71 1.877.71 2.593 0a1.808 1.808 0 000-2.57l-5.12-5.079h24.907A1.826 1.826 0 0033 17c0-1.004-.82-1.818-1.833-1.818H6.259l5.12-5.078a1.807 1.807 0 000-2.571z" fill="#7D82B7"/></svg>
